X: 192
T:the Marchioness of Tweedsdale
B:William Marshall's Scottish Airs, Melodies, Strathspeys, Reels &c (1822)
C:William Marshall
L:1/8
M:C
N:Set piece.  Slow
O:Scotland
R:Air
Z:Clark Bernst + Richard Robinson
%%Page:23 - 1
F:http://richardrobinson.tunebook.org.uk/tune/4035
%%TBL:{"version":1,"type":"tune","id":"4035"}
K:Eb
%%staves {1 2}
V:1
"^Slow"
{B,}E2 (D/C/)B,/A,/ .G,.E.B,.G, | .B,.E.D.F .E.B.G.e | \
A2 (A/G/)A/B/ .c.E.D.B, | .F.B,.G.B, (A/G/)(F/E/) DB, |
{B,}E2 (D/C/)B,/A,/ .G,.E.B,.G, | .B,.E.D.F .E.B.G.e | \
cC {C}A>G (F/G/)(A/B/) .c.A | (G/A/)(B/c/) (!wedge!B!wedge!B,) [G,E]2 [G,E]2 [|
G/A/B/c/ .B.B (~d/e/)f/d/ .B.B | E>g (f/e/)d/c/ (!trill!B/^A/)B/c/ .B.B | \
(b/^a/)g/f/ (!trill!g/f/)e/d/ (e/d/)c/B/ {d}(.e.E) | (~d/e/)f/g/ (.f.F) !trill!B>c B/A/G/F/ |
(E/e/)d/e/ (.B.G) A,c !trill!c2 | (~G/A/)B/c/ (~B/c/)d/e/ (~d/e/)f/g/ (f>g) | \
{a}a>g (f/e/)d/c/ (B/A/)G/F/ GE | (~G/A/)B/c/ (.B.B,) [G,E]2 [G,E]2 |]
V:2 middle=d clef=bass
L:1/4
e [Ae] [Ge] [Ee] | e B e G | A a A B | d e A B | e [Ae] [Ge] [Ee] | e B e G | A>GFA | BBEE || \
eebb | efBB | Bdee | fFBB | eeAA | eebB | ddeF | BBEE |]

